lib/brands/icons/paypal.svg

<svg xmlns="http://www.w3.org/2000/svg" fill="none" aria-hidden="true" viewBox="0 0 48 48"><g id="paypal-Icon"><g id="PayPal"><path id="Shape" fill="#253B80" d="M17.4111 40.7796L18.035 36.8166L16.6452 36.7844H10.0088L14.6208 7.54133C14.6351 7.45305 14.6816 7.37074 14.7496 7.31228C14.8176 7.25383 14.9047 7.22162 14.9954 7.22162H26.1853C29.9002 7.22162 32.4639 7.99466 33.8024 9.52046C34.4299 10.2362 34.8295 10.9842 35.0228 11.8074C35.2256 12.6711 35.2292 13.703 35.0312 14.9616L35.0168 15.0534V15.8599L35.6443 16.2154C36.1728 16.4957 36.5927 16.8166 36.9148 17.184C37.4517 17.796 37.7988 18.5738 37.9456 19.496C38.0971 20.4444 38.047 21.5729 37.7988 22.8506C37.5125 24.3203 37.0496 25.6004 36.4245 26.6478C35.8495 27.6129 35.1171 28.4134 34.2474 29.0337C33.4171 29.623 32.4305 30.0704 31.3151 30.3567C30.2343 30.6383 29.0019 30.7802 27.6503 30.7802H26.7794C26.1567 30.7802 25.5519 31.0045 25.0771 31.4065C24.6011 31.8169 24.2862 32.3776 24.1895 32.9908L24.1239 33.3475L23.0216 40.3323L22.9715 40.5888C22.9584 40.6699 22.9357 40.7104 22.9023 40.7379C22.8725 40.7629 22.8295 40.7796 22.7878 40.7796H17.4111V40.7796Z"/><path id="Shape_2" fill="#179BD7" d="M36.2389 15.1464V15.1464V15.1464C36.2055 15.3599 36.1673 15.5782 36.1244 15.8025C34.6487 23.379 29.6001 25.9963 23.1521 25.9963H19.8691C19.0805 25.9963 18.4161 26.569 18.2932 27.3468V27.3468V27.3468L16.6123 38.0071L16.1363 41.0289C16.0564 41.5394 16.4501 41.9999 16.9654 41.9999H22.7883C23.4778 41.9999 24.0635 41.4989 24.1721 40.8189L24.2294 40.523L25.3257 33.5657L25.3961 33.1839C25.5034 32.5016 26.0904 32.0005 26.7799 32.0005H27.6508C33.2923 32.0005 37.7086 29.71 38.9994 23.0819C39.5386 20.3131 39.2595 18.0011 37.8327 16.3751C37.4009 15.8848 36.8652 15.478 36.2389 15.1464V15.1464Z"/><path id="Shape_3" fill="#222D65" d="M34.695 14.5309C34.4695 14.4653 34.2369 14.4056 33.9983 14.352C33.7585 14.2995 33.5128 14.2529 33.2599 14.2124C32.3747 14.0692 31.4048 14.0012 30.3657 14.0012H21.5951C21.3792 14.0012 21.174 14.0501 20.9903 14.1384C20.5858 14.3329 20.2852 14.7158 20.2124 15.1846L18.3467 27.0021L18.293 27.3469C18.4158 26.5691 19.0803 25.9964 19.8689 25.9964H23.1519C29.5999 25.9964 34.6485 23.3779 36.1242 15.8026C36.1683 15.5783 36.2053 15.36 36.2387 15.1465C35.8653 14.9484 35.4609 14.779 35.0254 14.6347C34.9181 14.5989 34.8071 14.5643 34.695 14.5309V14.5309Z"/><path id="Shape_4" fill="#253B80" d="M20.9901 14.1396C21.175 14.0513 21.379 14.0024 21.5949 14.0024H30.3656C31.4046 14.0024 32.3745 14.0704 33.2597 14.2135C33.5126 14.2541 33.7584 14.3006 33.9981 14.3531C34.2367 14.4068 34.4694 14.4664 34.6948 14.5321C34.807 14.5655 34.9179 14.6001 35.0265 14.6347C35.4619 14.779 35.8663 14.9496 36.2397 15.1464C36.6787 12.3466 36.2361 10.4402 34.7223 8.71399C33.0533 6.8136 30.0411 6 26.1866 6H14.9967C14.2093 6 13.5377 6.57262 13.416 7.35163L8.75508 36.8953C8.66322 37.4799 9.11416 38.0072 9.70348 38.0072H16.6119L18.3465 27.0021L20.2123 15.1846C20.2851 14.7158 20.5857 14.3328 20.9901 14.1396Z"/></g></g></svg>

<svg xmlns="http://www.w3.org/2000/svg" fill="none" aria-hidden="true" viewBox="0 0 48 48"><path fill="#253B80" d="m17.411 40.78.624-3.963-1.39-.033H10.01l4.61-29.243a.377.377 0 0 1 .375-.32h11.19c3.714 0 6.278.774 7.616 2.3.628.715 1.028 1.463 1.22 2.286.204.864.207 1.896.01 3.155l-.015.091v.807l.627.355c.529.28.949.602 1.27.969.538.612.885 1.39 1.032 2.312.151.948.101 2.077-.147 3.355-.286 1.47-.75 2.75-1.374 3.797a7.809 7.809 0 0 1-2.178 2.386c-.83.589-1.816 1.036-2.932 1.323-1.08.281-2.313.423-3.665.423h-.87a2.64 2.64 0 0 0-1.703.627c-.476.41-.79.97-.888 1.584l-.065.356-1.102 6.985-.05.257c-.014.08-.036.121-.07.149a.185.185 0 0 1-.114.042H17.41Z"/><path fill="#179BD7" d="M36.239 15.146a18.2 18.2 0 0 1-.115.656C34.65 23.38 29.6 25.997 23.152 25.997H19.87c-.788 0-1.453.573-1.576 1.35l-1.68 10.661-.477 3.022a.84.84 0 0 0 .83.97h5.822a1.4 1.4 0 0 0 1.384-1.18l.057-.296 1.097-6.957.07-.382A1.4 1.4 0 0 1 26.78 32h.87c5.643 0 10.06-2.29 11.35-8.92.539-2.768.26-5.08-1.167-6.706a5.566 5.566 0 0 0-1.594-1.229Z"/><path fill="#222D65" d="M34.695 14.53a11.591 11.591 0 0 0-1.435-.318 18.229 18.229 0 0 0-2.894-.21h-8.77a1.398 1.398 0 0 0-1.383 1.183l-1.866 11.817-.054.345a1.594 1.594 0 0 1 1.576-1.35h3.283c6.448 0 11.496-2.62 12.972-10.194.044-.225.081-.443.115-.657a7.853 7.853 0 0 0-1.214-.511 11.7 11.7 0 0 0-.33-.104Z"/><path fill="#253B80" d="M20.99 14.14c.185-.089.389-.138.605-.138h8.77c1.04 0 2.01.068 2.895.211a11.572 11.572 0 0 1 1.767.421c.435.145.84.316 1.213.512.439-2.8-.004-4.706-1.518-6.432C33.053 6.814 30.042 6 26.187 6h-11.19a1.6 1.6 0 0 0-1.581 1.352l-4.66 29.543a.961.961 0 0 0 .947 1.112h6.909l1.735-11.005 1.865-11.817c.073-.47.374-.852.778-1.045Z"/></svg>
